X: 4712
T: Boys Of Ballinahinch, The
R: reel
M: 4/4
K: Dmajor
|f~d3 e~B3|dcde faag|fdd=c AB=cB|AFdF EFD2|
d3f e~B3|dcde faag|fdd=c AB=cB|AFdF EFD2|
faab afdf|afdf gfed|faab afdf|gfed Bcde|
faab afdf|abaf g2ga|(3(agf) gf gfef|g2gf gaag|

